X: 1
T: Flowers of the Forest
C: Balfa Bros.
O: arr. Rachel Maloney / Rustic Roots
R: waltz
Z: 2020 John Chambers <jc:trillian.mit.edu>
M: 3/4
L: 1/8
K: Gmix
z2 |\
"G"D4 E2 | D4 E2 | D3 E G2 | G3 A B2 |\
"C"c4 B2 | A3 B AG | "G"(E G3) ^F2 | "C"E3 D C2 ||\
"G"D4 E2 | D4 E2 |
D3 E G2 | G4 c2 |\
   B4 B2 | "D"A3 B A2 | "C"G4- | G4 :: D2 |\
"F"F4 E2 | F4 G2 | "C"E3 D C2 | "G"D4 c2 |\
   B4 B2 |
   "D"A3 B AG | "G"E G3 ^F2 | "C"E3 D C2 ||\
"G"D4 E2 | D4 E2 | D3 E G2 | G4 c2 |\
   B4 B2 | "D"A3 B A2 | "G"G4- | G4 :|
